X: 33620
T: Rakish Paddy
R: reel
M: 4/4
K: Ddorian
G|c2edc2AB|c2GF ECCE|Ddd^cd2Ac|d2AG FDDB|
c2edc2AB|cGAF ECCE|DEFG ABcA|d2AG FDDf|
ecgc acgc|ecgc ecce|fcad bdad|fgag fddf|
ecgc acgc|GAcd eccg|afge fde^c|d2AG FDD||

